svgs/sharp-regular/warehouse-full.svg

<svg xmlns="http://www.w3.org/2000/svg" viewBox="0 0 640 512"><!--! Font Awesome Pro 6.4.0 by @fontawesome - https://fontawesome.com License - https://fontawesome.com/license (Commercial License) Copyright 2023 Fonticons, Inc. --><path d="M320 6.1l9 3.7 296 120 15 6.1V152 488v24H592V488 168.2L320 57.9 48 168.2V488v24H0V488 152 135.8l15-6.1L311 9.8l9-3.7zM96 192h24H520h24v24V488v24H496V488 240H144V488v24H96V488 216 192zm224 96v96H176V288H320zM464 416v96H352V416H464zm-288 0H320v96H176V416z"/></svg>

<svg xmlns="http://www.w3.org/2000/svg" viewBox="0 0 640 512"><!--! Font Awesome Pro 6.6.0 by @fontawesome - https://fontawesome.com License - https://fontawesome.com/license (Commercial License) Copyright 2024 Fonticons, Inc. --><path d="M320 6.1l9 3.7 296 120 15 6.1 0 16.2 0 336 0 24-48 0 0-24 0-319.8L320 57.9 48 168.2 48 488l0 24L0 512l0-24L0 152l0-16.2 15-6.1L311 9.8l9-3.7zM96 192l24 0 400 0 24 0 0 24 0 272 0 24-48 0 0-24 0-248-352 0 0 248 0 24-48 0 0-24 0-272 0-24zm224 96l0 96-144 0 0-96 144 0zM464 416l0 96-112 0 0-96 112 0zm-288 0l144 0 0 96-144 0 0-96z"/></svg>
